X:1
T:the Wild Geese
T:the Wild Geese
T:Mrs. MacPherson of Cluny
T:Joseph Lowe
C:Joseph Lowe
L:1/8
M:6/8
K:A
V:1 treble 
V:1
 e | c2 e ece | fga ecA | c2 e ecA | GAB Bcd | c2 e ece | fga ecA | Bcd efg | aec A2 :: (3e/f/g/ | %10
 a3 Ace | aga ecA | dcB fdB | bge efg |1 a3 Ace | aga ecA | Bcd efg | aec A2 :|2 a2 e ece | %19
 fga ecA | Bcd efg | aec A2 |] %22

